!!!COM: Bach, Johann Sebastian
!!!CDT: 1685/3//-1750/7/28/
!!!OTL@@DE: Nun lob', mein' Seel', den Herren
!!!AGN: 4-Part Chorale
!!!SCT: BH 268
!!!SCT: BWV 389
**harm	**root	**kern	**kern	**kern	**kern
!	!	!bass	!tenor	!alto	!soprno
*	*Iorgan	*Iorgan	*Iorgan	*Iorgan	*Iorgan
*M4/4	*M4/4	*M4/4	*M4/4	*M4/4	*M4/4
*met(c)	*met(c)	*met(c)	*met(c)	*met(c)	*met(c)
*MM60	*MM60	*MM60	*MM60	*MM60	*MM60
*k[b-e-a-d-]	*k[b-e-a-d-]	*k[b-e-a-d-]	*k[b-e-a-d-]	*k[b-e-a-d-]	*k[b-e-a-d-]
*A-:	*A-:	*A-:	*A-:	*A-:	*A-:
*>[A,A,B]	*>[A,A,B]	*>[A,A,B]	*>[A,A,B]	*>[A,A,B]	*>[A,A,B]
*>A	*>A	*>A	*>A	*>A	*>A
I	4CC	8A-	4c	4e-	4a-
.	.	8G	.	.	.
=1	=1	=1	=1	=1	=1
vi	4AA	4F	4c	4f	4a-
iii	4EE	4C	8c	4e-	4g
.	.	.	8B-	.	.
IV	4FF	4D-	4A-	8e-	4f
.	.	.	.	8d-	.
I	4CC	8AA-	4A-	8c	4e-
.	.	8BB-	.	8d-	.
=2	=2	=2	=2	=2	=2
Ib	4CC	4C	4.A-	4e-	4a-
ii7b	8DD	8D-	.	8f	4b-
V	8GG	8E-	8G	8e-	.
I;	4CC;	4AA-;	4A-;	4e-;	4cc;
I	4CC	4AA-	8A-	4e-	4cc
.	.	.	8B-	.	.
=3	=3	=3	=3	=3	=3
I	8CC	4A-	8c	8e-	8cc
ii7d	8DD	.	8d-	8f	8b-
Vb/vi	4EE	4E	8c	4g	4cc
.	.	.	8B-	.	.
vi	4AA	8F	4.A-	4.f	4cc
.	.	8E-	.	.	.
ii7b	8DD	8D-	.	.	4b-
V	8GG	8E-	8G	8e-	.
=4	=4	=4	=4	=4	=4
Ib	8CC	8C	4A-	8e-	8a-
ii7b	8DD	8D-	.	8f	8b-
V	4GG	4E-	4G	8e-	4b-T
.	.	.	.	8d-	.
I;	4CC;	4AA-;	4E-;	4c;	4a-;
=:|!	=:|!	=:|!	=:|!	=:|!	=:|!
*>B	*>B	*>B	*>B	*>B	*>B
I	4CC	4AA-	4E-	4c	4a-
=5	=5	=5	=5	=5	=5
IV	4FF	4D-	4F	4d-	8a-
.	.	.	.	.	8b-
Ib	4CC	8C	8E-	4a-	4cc
.	.	8D-	8F	.	.
V	4GG	4E-	4G	8e-	4b-
.	.	.	.	8d-	.
Vb/vi	4EE	4E	4G	4c	4cc
=6	=6	=6	=6	=6	=6
vi	4AA	4F	8G	2c	4a-
.	.	.	4F	.	.
V/vi	4EE	4C	.	.	4g
.	.	.	8E	.	.
vi;	4AA;	4FF;	4A-;	4c;	4f;
vi	4AA	8F	8A-	4c	4f
.	.	8E-	8G	.	.
!!linebreak: 3
=7	=7	=7	=7	=7	=7
Vb/V	4DD	4D	4F	4B-	8b-
.	.	.	.	.	8a-
V	4GG	8E-	4E-	4B-	4g
.	.	8D	.	.	.
Ib	8CC	8C	4E-	8e-	8a-
I7	8CC	8AA-	.	8c	8g
V/V	4DD	4BB-	8B-	4d	4f
.	.	.	8A-	.	.
=8	=8	=8	=8	=8	=8
V;	4GG;	4EE-;	4G;	4B-;	4e-;
V	4GG	8E-	8G	4B-	4e-
.	.	8D-	8F	.	.
Ib	4CC	4C	4E-	8e-	4a-
.	.	.	.	8d-	.
vi	4AA	8F	4A-	4c	4a-
.	.	8E-	.	.	.
=9	=9	=9	=9	=9	=9
ii7b	4DD	8D-	4A-	8f	4b-
.	.	8BB-	.	8d-	.
V	4GG	4E-	4G	4e-	4b-
I	4CC	4.AA-	4A-	8e-	8cc
.	.	.	.	8d-	8b-
V7/IV	4CC	.	4G-	4e-	4cc
.	.	16BB-	.	.	.
.	.	16C	.	.	.
=10	=10	=10	=10	=10	=10
IV;	4FF;	4D-;	4F;	4d-;	4a-;
I	4CC	4C	4A-	4e-	4a-
ii	4DD	4BB-	8B-	8d-	4dd-
.	.	.	8c	8e-	.
ii	4DD	4B-	4d-	4f	4dd-
=11	=11	=11	=11	=11	=11
iv/ii	4GG	8E-	4e-	4g-	8cc
.	.	8G-	.	.	8b-
V/ii	4AA	4F	4A	4c	4cc
ii;	4DD;	4BB-;	4F;	4d-;	4b-;
V	4GG	4E-	4G	4e-	4b-
=12	=12	=12	=12	=12	=12
I	4CC	8A-	4A-	4e-	4cc
.	.	8G	.	.	.
vi	4AA	8F	4A-	4f	4cc
.	.	8E-	.	.	.
iib	4DD	8D-	4B-	4f	4dd-
.	.	8C	.	.	.
IVb/IV	4BB-	4BB-	4B-	4g-	4dd-
!!linebreak: 3
=13	=13	=13	=13	=13	=13
V7/IV	4CC	4AA-	8c	4g-	8ee-
.	.	.	8B-	.	16dd-
.	.	.	.	.	16cc
vi7/IV	8DD	8BB-	8A-	8f	8dd-
viio/IV	8EE	8C	8G-	8e-	8ee-
IV;	4FF;	4D-;	4F;	4d-;	4a-;
I	4CC	4A-	8A-	4e-	4cc
.	.	.	8G	.	.
=14	=14	=14	=14	=14	=14
Vb/V	4DD	4D	4F	4f	8b-
.	.	.	.	.	8a-
V	4GG	4E-	4B-	4e-	4g
Ib	8CC	8C	4E-	8e-	8a-
I7	8CC	8AA-	.	8c	8g
V/V	4DD	4BB-	8B-	4d	4f
.	.	.	8A-	.	.
=15	=15	=15	=15	=15	=15
V;	4GG;	4EE-;	4G;	4B-;	4e-;
V	4GG	4EE-	4G	4B-	4e-
vi	4AA	4FF	8C	4f	4a-
.	.	.	8D	.	.
Vb	4GG	8GG	4E-	8B-	4g
.	.	8AA-	.	8c	.
=16	=16	=16	=16	=16	=16
ii	4DD	4BB-	4B-	4d-	4f
Ib	4CC	4C	8B-	4e-	4e-
.	.	.	8A-	.	.
viio7c	4BB	4D-	8A-	4.f	4b-
.	.	.	8G	.	.
viio7/V	4FF#	4D	4A-	.	4cc
.	.	.	.	16g	.
.	.	.	.	16a-	.
=17	=17	=17	=17	=17	=17
V;	4GG;	4E-;	4G;	4e-;	4b-;
Vb/vi	4EE	4E	8c	4g	4cc
.	.	.	8B-	.	.
vi	4AA	8F	8A-	4f	4dd-
.	.	8G	8B-	.	.
I	8CC	4A-	8c	8e-	4cc
IV7c	8FF	.	8d-	8f	.
=18	=18	=18	=18	=18	=18
V7d	8GG	8D-	8e-	4g	4b-
V7	8GG	8E-	8d-	.	.
vi	4AA	4F	8c	2a-	8a-
.	.	.	8d-	.	8b-
Ic	4CC	8E-	4.e-	.	4cc
.	.	8D-	.	.	.
V	4GG	4E-	.	4g	4b-
.	.	.	8d-	.	.
=19	=19	=19	=19	=19	=19
I;	2.CC;	2.AA-;	2.c;	2.e-;	2.a-;
==	==	==	==	==	==
*-	*-	*-	*-	*-	*-
!!chor2scor: -l 3 -s 0.6 -o %b.pmx
!!!YEC: Copyright 1994, David Huron
!!!YEC: Changes/Additions 2001 by Craig Stuart Sapp
!!!YEN: United States of America
!!!SMA: 371 Bach Chorales, edited by Ludwig Erk, C.F. Peters
!!!PDT: 1850, 1865
!!!ONB: Harmony and Root analysis done manually
